X:1
T:There Is Room in My Heart for Thee
T:There Is Room in My Heart for Thee
T:Timothy R. Matthews, 1876
T:Emily E. Elliott, 1864
T:PUBLIC DOMAIN
T:PUBLIC DOMAIN
C:Timothy R. Matthews, 1876
Z:Emily E. Elliott, 1864
Z:PUBLIC DOMAIN
%%score ( 1 2 ) ( 3 4 )
L:1/8
Q:1/4=90
M:4/4
K:D
V:1 treble nm="Treble"
V:2 treble 
V:3 bass nm="Bass"
V:4 bass 
V:1
 ((D [DE])) | [DF]2 (([DF] [DF])) [B,G]2 [CF] [CE] | D2 [B,E]2 [CF]2 (([DF] [D^G])) | %3
w: 1.~Thou didst|leave Thy * throne and Thy|king- ly crown, When Thou|
w: 2.~Heav- en’s|arch- es * rang when the|an- gels sang, Pro- _|
w: 3.~The *|fox- es found rest, and the|birds their nest In the|
w: 4.~Thou *|cam- est, O Lord, with the|liv- ing Word, That should|
w: 5.~When the|heav’ns shall * ring, and her|choirs shall sing, At Thy|
 [CA]2 (([EA] [EA])) [DF]2 (D D) | [CE]6 | [CE] [CE] | [DF]2 ((F F)) [F^G]2 [^EG] [EG] | %7
w: cam- est to earth for *|me;|But in|Beth- le- hem’s home was there|
w: claim- ing Thy roy- al de-|gree;|But of|low- ly * birth didst Thou|
w: shade of the for- est *|tree;|But Thy|couch was the sod, O Thou|
w: set Thy * peo- ple *|free;|But with|mock- ing * scorn and with|
w: com- ing to vic- to- _|ry,|Let Thy|voice call me home, say- ing,|
 [CA]2 (([DA] [DA])) [DB]2 (([DB] [DB])) | [Cc]2 (([EA] [EA])) B3 c | [CA]6 ||"^Refrain" [CA]2 | %11
w: found no * room For Thy|ho- ly na- tiv- i-|ty.|O|
w: come to * earth, And in|great hu- _ mil- i-|ty.||
w: Son of * God, In the|des- erts of Gal- i-|lee.||
w: crown of * thorn, They *|bore Thee to Cal- va-|ry.||
w: “Yet there is room, There is|room at My side for|thee.”||
 [DA]2 [DF] [CG] [DA]2 [Fd]2 | [Gd]4 [Gc]2 [EB] [EB] | [FA]2 D [DE] [DF]2 (([CE] [CE])) | D6 |] %15
w: come to my heart, Lord|Je- sus, There is|room in my heart for *|Thee.|
w: ||||
w: ||||
w: ||||
w: ||||
V:2
 D z | x8 | D2 z2 z4 | z4 z2 (D D) | x6 | x2 | z2 F F z4 | x8 | z4 E2 D2 | x6 || x2 | x8 | x8 | %13
 z2 D z z4 | D6 |] %15
V:3
 (([D,F,] [D,G,])) | [D,A,]2 (([B,,B,] [B,,B,])) [E,G,]2 [A,,A,] [A,,G,] | %2
w: ||
 [B,,F,]2 [G,,B,]2 [F,,^A,]2 (([B,,B,] [B,,B,])) | %3
w: |
 [A,,E,]2 (([C,A,] [C,A,])) [D,A,]2 (([F,A,] [F,A,])) | A,6 | [A,,A,] [A,,A,] | %6
w: |||
 [D,A,]2 (([D,A,] [D,A,])) [C,B,]2 [C,B,] [C,B,] | %7
w: |
 [F,A,]2 (([=F,A,] [F,A,])) [E,A,]2 (([E,^G,] [E,G,])) | %8
w: |
 [A,,A,]2 (([C,A,] [C,A,])) [E,A,]2 [E,^G,]2 | [A,,A,]6 || [A,,G,]2 | %11
w: ||My|
 [D,F,]2 [D,A,] [E,A,] [F,A,]2 [D,A,]2 | [E,A,]4 [E,A,]2 [G,C] [G,C] | %13
w: heart shall re- joice, Lord|Je- sus, When Thou|
 [F,D]2 [B,,^G,] [B,,G,] [A,,A,]2 (([A,,A,] [A,,=G,])) | [D,F,]6 |] %15
w: com- est and call- est for|me.|
V:4
 x2 | x8 | x8 | x8 | A,6 | x2 | x8 | x8 | x8 | x6 || x2 | x8 | x8 | x8 | x6 |] %15

